src/img/make-things-simple.svg

<?xml version="1.0" encoding="UTF-8" standalone="no"?>
<svg
  xmlns="http://www.w3.org/2000/svg"
  version="1.1"
  width="640"
  height="360"
  viewBox="0 0 640 360">
  <rect
    width="672"
    height="392"
    x="-16"
    y="-16"
    style="fill:#5bacd0"/>
  <path
    d="m 159.83,152.43 0,42.6 2.88,0 0,-12 2.94,-3.12 11.76,15.12 3.48,0 -13.26,-16.86 11.64,-11.94 -3.48,0 -10.2,10.68 c -0.9,0.96 -2.04,2.28 -2.76,3.18 l -0.12,0 0,-27.66 -2.88,0 z m 93.46,0 0,42.6 2.88,0 0,-17.58 c 0,-1.2 0.1,-1.98 0.36,-2.88 1.26,-3.54 4.62,-6.48 8.7,-6.48 5.88,0 7.92,4.68 7.92,9.9 l 0,17.04 2.88,0 0,-17.34 c 0,-10.74 -7.32,-12.12 -10.02,-12.12 -2.16,0 -4.14,0.6 -5.82,1.68 -1.68,0.96 -3.06,2.52 -3.9,4.14 l -0.12,0 0,-18.96 -2.88,0 z m 267.65,0 0,42.6 2.88,0 0,-42.6 -2.88,0 z m -112.19,1.5 c -6.9,0 -11.76,4.32 -11.76,10.26 0,5.52 3.9,8.88 10.38,11.16 5.88,2.28 8.22,4.92 8.22,9.48 0,4.98 -3.72,8.4 -9.78,8.4 -3.36,0 -6.54,-1.08 -8.82,-2.64 l -1.08,2.34 c 2.1,1.62 6.18,2.76 9.66,2.76 8.64,0 12.84,-5.28 12.84,-11.16 0,-6.06 -3.54,-9.06 -10.2,-11.76 -5.82,-2.28 -8.4,-4.56 -8.4,-9.06 0,-3.18 2.22,-7.38 8.76,-7.38 3.48,0 6.06,1.14 7.14,1.92 l 1.08,-2.4 c -1.38,-0.96 -4.26,-1.92 -8.04,-1.92 z m -321.298,0.66 -2.942,40.44 2.821,0 1.259,-18.6 c 0.48,-6.72 0.781,-13.74 0.901,-18.48 l 0.121,0 c 1.2,4.44 2.939,9.3 5.219,15.6 l 7.979,21.48 1.98,0 8.52,-22.02 c 2.34,-6 3.96,-10.68 5.46,-15.06 l 0.12,0 c 0,4.38 0.48,11.82 0.84,17.88 l 1.2,19.2 2.82,0 -2.7,-40.44 -3.42,0 -9.06,23.34 c -2.04,5.4 -3.48,9.36 -4.5,13.08 l -0.18,0 c -1.14,-3.9 -2.52,-7.98 -4.438,-13.14 l -8.701,-23.28 -3.299,0 z m 132.658,0 0,2.4 13.2,0 0,38.04 2.88,0 0,-38.04 13.2,0 0,-2.4 -29.28,0 z m 66.72,0.9 c -1.32,0 -2.34,1.2 -2.34,2.52 0,1.32 0.9,2.46 2.22,2.46 1.5,0 2.4,-1.14 2.4,-2.46 0,-1.38 -0.96,-2.52 -2.28,-2.52 z m 140.75,0 c -1.32,0 -2.34,1.2 -2.34,2.52 0,1.32 0.9,2.46 2.22,2.46 1.5,0 2.4,-1.14 2.4,-2.46 0,-1.38 -0.96,-2.52 -2.28,-2.52 z m -286.9,10.08 c -2.58,0 -5.82,0.72 -8.46,2.46 l 0.9,2.1 c 2.1,-1.5 4.74,-2.16 7.26,-2.16 6.84,-0.1 7.38,5.64 7.38,8.46 l 0,0.78 c -11.76,-0.12 -17.58,3.9 -17.58,10.56 0,3.84 2.64,7.92 8.46,7.92 4.62,0 7.8,-2.58 9.24,-4.8 l 0.12,0 0.42,4.14 2.64,0 c -0.36,-2.22 -0.42,-4.56 -0.42,-6.84 l 0,-11.28 c 0,-5.1 -1.62,-11.34 -9.96,-11.34 z m 55.9,0 c -7.44,0 -12.96,6 -12.96,15.6 0,8.46 5.16,14.46 13.44,14.46 5.04,0 7.98,-1.26 9.06,-1.86 l -0.72,-2.22 c -1.62,0.78 -3.78,1.62 -7.98,1.62 -6,0 -10.98,-3.66 -10.98,-12.84 l 21.24,0 c 0.12,-0.54 0.12,-0.96 0.12,-1.74 0,-4.14 -1.8,-13.02 -11.22,-13.02 z m 114.01,0 c -4.68,0 -8.34,2.64 -9.9,5.88 l -0.12,0 -0.18,-5.22 -2.7,0 c 0.18,2.28 0.24,4.26 0.24,6.9 l 0,21.9 2.88,0 0,-17.82 c 0,-0.9 0.18,-1.86 0.36,-2.58 1.14,-3.72 4.62,-6.6 8.64,-6.6 5.94,0 7.98,4.74 7.98,9.96 l 0,17.04 2.88,0 0,-17.28 c 0,-10.8 -7.32,-12.18 -10.08,-12.18 z m 30.01,0 c -6.36,0 -12.96,5.28 -12.96,15.3 0,7.86 5.1,14.16 12.36,14.16 5.16,0 8.52,-2.64 10.02,-5.58 l 0.12,0 0,4.08 c 0,8.52 -4.38,11.64 -10.44,11.64 -3.72,0 -6.54,-1.08 -8.58,-2.4 l -1.02,2.28 c 2.22,1.68 5.88,2.52 9.18,2.52 3.24,0 7.14,-0.9 9.78,-3.42 2.4,-2.28 3.96,-5.94 3.96,-13.32 l 0,-17.16 c 0,-3 0.1,-5.28 0.24,-7.44 l -2.64,0 -0.18,4.86 -0.12,0 c -1.2,-2.4 -4.02,-5.52 -9.72,-5.52 z m 29.64,0 c -5.58,0 -8.88,3.66 -8.88,7.8 0,3.48 2.58,6.06 7.32,7.86 4.14,1.68 6.06,3.36 6.06,6.54 0,3 -2.16,5.46 -6.72,5.46 -2.58,0 -4.92,-1.02 -6.48,-1.98 l -1.02,2.4 c 1.92,1.2 4.56,1.98 7.32,1.98 5.88,0 9.72,-3.3 9.72,-8.22 0,-4.38 -2.76,-6.72 -7.44,-8.52 -3.9,-1.62 -5.94,-2.94 -5.94,-5.94 0,-2.64 1.92,-4.98 5.58,-4.98 2.88,0 4.74,1.02 5.76,1.74 l 1.08,-2.34 c -1.44,-1.02 -3.72,-1.8 -6.36,-1.8 z m 80.56,0 c -4.74,0 -7.5,2.46 -9.36,5.76 l -0.12,0 -0.18,-5.1 -2.7,0 c 0.18,2.28 0.24,4.26 0.24,6.9 l 0,21.9 2.88,0 0,-17.76 c 0,-0.96 0.18,-1.98 0.42,-2.76 1.08,-3.36 4.14,-6.48 7.98,-6.48 4.68,0 7.14,3.78 7.14,9 l 0,18 2.88,0 0,-18.48 c 0,-1.02 0.24,-1.98 0.48,-2.82 1.14,-3.06 3.96,-5.7 7.56,-5.7 4.98,0 7.5,3.84 7.5,10.32 l 0,16.68 2.88,0 0,-16.98 c 0,-10.92 -6.6,-12.48 -9.42,-12.48 -3.06,0 -4.98,0.84 -6.84,2.4 -1.08,0.9 -2.16,2.16 -2.94,3.9 l -0.12,0 c -1.26,-3.66 -4.32,-6.3 -8.28,-6.3 z m 50.36,0 c -4.98,0 -8.52,2.34 -10.62,6.12 l -0.12,0 -0.18,-5.46 -2.76,0 c 0.18,2.76 0.24,5.58 0.24,9.18 l 0,31.5 2.88,0 0,-16.56 0.12,0 c 1.98,3.48 5.64,5.34 9.78,5.34 6.96,0 13.08,-5.28 13.08,-15.54 0,-8.46 -4.98,-14.58 -12.42,-14.58 z m 43.11,0 c -7.43,0 -12.95,6 -12.95,15.6 0,8.46 5.16,14.46 13.43,14.46 5.05,0 7.98,-1.26 9.07,-1.86 l -0.72,-2.22 c -1.62,0.78 -3.78,1.62 -7.99,1.62 -6,0 -10.98,-3.66 -10.98,-12.84 l 21.24,0 c 0.12,-0.54 0.12,-0.96 0.12,-1.74 0,-4.14 -1.79,-13.02 -11.22,-13.02 z m -258.88,0.66 0,28.8 2.88,0 0,-28.8 -2.88,0 z m 140.75,0 0,28.8 2.88,0 0,-28.8 -2.88,0 z m -229.92,1.74 c 6.96,0 8.64,6.06 8.58,10.08 l -18.24,0 c 0.54,-4.44 3.3,-10.08 9.66,-10.08 z m 144.62,0 c 4.74,0 7.74,3.06 8.94,6.54 0.3,0.84 0.36,1.74 0.36,2.82 l 0,5.76 c 0,1.02 -0.18,2.1 -0.48,3.06 -1.5,4.14 -5.04,6.48 -8.94,6.48 -6.78,0 -10.2,-5.58 -10.2,-12.06 0,-7.62 4.2,-12.6 10.32,-12.6 z m 159.72,0 c 6.54,0 10.14,5.82 10.14,12.3 0,7.68 -3.78,13.02 -10.38,13.02 -4.44,0 -8.28,-2.88 -9.48,-7.32 -0.18,-0.72 -0.24,-1.5 -0.24,-2.28 l 0,-5.64 c 0,-0.78 0.24,-1.68 0.42,-2.46 1.26,-4.74 5.34,-7.62 9.54,-7.62 z m 43.35,0 c 6.96,0 8.65,6.06 8.58,10.08 l -18.24,0 c 0.55,-4.44 3.31,-10.08 9.66,-10.08 z m -398.59,11.64 c 0.83,0 1.65,0 2.44,0 l 0,6.18 c 0,0.48 -0.1,1.14 -0.3,1.74 -0.96,2.82 -3.72,5.76 -8.52,5.76 -3,0 -5.76,-1.86 -5.76,-6 0,-6.04 6.34,-7.53 12.14,-7.68 z"
    style="fill:#3598c3"/>
</svg>

<?xml version="1.0" encoding="UTF-8" standalone="no"?>
<svg
  xmlns="http://www.w3.org/2000/svg"
  version="1.1"
  width="640"
  height="360"
  viewBox="0 0 640 360">
  <rect
    width="672"
    height="392"
    x="-16"
    y="-16"
    style="fill:#75bae7"/>
  <path
    d="M 159.83 152.43 L 159.83 195.03 L 162.71 195.03 L 162.71 183.03 L 165.65 179.91 L 177.41 195.03 L 180.89 195.03 L 167.63 178.17 L 179.27 166.23 L 175.79 166.23 L 165.59 176.91 C 164.69 177.87 163.55 179.19 162.83 180.09 L 162.71 180.09 L 162.71 152.43 L 159.83 152.43 z M 87.451 154.59 L 84.51 195.03 L 87.33 195.03 L 88.59 176.43 C 89.07 169.71 89.37 162.69 89.49 157.95 L 89.611 157.95 C 90.811 162.39 92.55 167.25 94.83 173.55 L 102.81 195.03 L 104.79 195.03 L 113.31 173.01 C 115.65 167.01 117.27 162.33 118.77 157.95 L 118.89 157.95 C 118.89 162.33 119.37 169.77 119.73 175.83 L 120.93 195.03 L 123.75 195.03 L 121.05 154.59 L 117.63 154.59 L 108.57 177.93 C 106.53 183.33 105.09 187.29 104.07 191.01 L 103.89 191.01 C 102.75 187.11 101.37 183.03 99.451 177.87 L 90.752 154.59 L 87.451 154.59 z M 140.68 165.57 C 138.1 165.57 134.86 166.29 132.22 168.03 L 133.12 170.13 C 135.22 168.63 137.86 167.97 140.38 167.97 C 147.22 167.87 147.76 173.61 147.76 176.43 L 147.76 177.21 C 136 177.09 130.18 181.11 130.18 187.77 C 130.18 191.61 132.82 195.69 138.64 195.69 C 143.26 195.69 146.44 193.11 147.88 190.89 L 148 190.89 L 148.42 195.03 L 151.06 195.03 C 150.7 192.81 150.64 190.47 150.64 188.19 L 150.64 176.91 C 150.64 171.81 149.02 165.57 140.68 165.57 z M 196.58 165.57 C 189.14 165.57 183.62 171.57 183.62 181.17 C 183.62 189.63 188.78 195.63 197.06 195.63 C 202.1 195.63 205.04 194.37 206.12 193.77 L 205.4 191.55 C 203.78 192.33 201.62 193.17 197.42 193.17 C 191.42 193.17 186.44 189.51 186.44 180.33 L 207.68 180.33 C 207.8 179.79 207.8 179.37 207.8 178.59 C 207.8 174.45 206 165.57 196.58 165.57 z M 196.22 167.97 C 203.18 167.97 204.86 174.03 204.8 178.05 L 186.56 178.05 C 187.1 173.61 189.86 167.97 196.22 167.97 z M 145.32 179.61 L 147.76 179.61 L 147.76 185.79 C 147.76 186.27 147.66 186.93 147.46 187.53 C 146.5 190.35 143.74 193.29 138.94 193.29 C 135.94 193.29 133.18 191.43 133.18 187.29 C 133.18 181.25 139.52 179.76 145.32 179.61 z"
    style="fill:#278dd2"/>
  <path
    d="M 253.29 152.43 L 253.29 195.03 L 256.17 195.03 L 256.17 177.45 C 256.17 176.25 256.27 175.47 256.53 174.57 C 257.79 171.03 261.15 168.09 265.23 168.09 C 271.11 168.09 273.15 172.77 273.15 177.99 L 273.15 195.03 L 276.03 195.03 L 276.03 177.69 C 276.03 166.95 268.71 165.57 266.01 165.57 C 263.85 165.57 261.87 166.17 260.19 167.25 C 258.51 168.21 257.13 169.77 256.29 171.39 L 256.17 171.39 L 256.17 152.43 L 253.29 152.43 z M 220.11 154.59 L 220.11 156.99 L 233.31 156.99 L 233.31 195.03 L 236.19 195.03 L 236.19 156.99 L 249.39 156.99 L 249.39 154.59 L 220.11 154.59 z M 286.83 155.49 C 285.51 155.49 284.49 156.69 284.49 158.01 C 284.49 159.33 285.39 160.47 286.71 160.47 C 288.21 160.47 289.11 159.33 289.11 158.01 C 289.11 156.63 288.15 155.49 286.83 155.49 z M 310.59 165.57 C 305.91 165.57 302.25 168.21 300.69 171.45 L 300.57 171.45 L 300.39 166.23 L 297.69 166.23 C 297.87 168.51 297.93 170.49 297.93 173.13 L 297.93 195.03 L 300.81 195.03 L 300.81 177.21 C 300.81 176.31 300.99 175.35 301.17 174.63 C 302.31 170.91 305.79 168.03 309.81 168.03 C 315.75 168.03 317.79 172.77 317.79 177.99 L 317.79 195.03 L 320.67 195.03 L 320.67 177.75 C 320.67 166.95 313.35 165.57 310.59 165.57 z M 340.6 165.57 C 334.24 165.57 327.64 170.85 327.64 180.87 C 327.64 188.73 332.74 195.03 340 195.03 C 345.16 195.03 348.52 192.39 350.02 189.45 L 350.14 189.45 L 350.14 193.53 C 350.14 202.05 345.76 205.17 339.7 205.17 C 335.98 205.17 333.16 204.09 331.12 202.77 L 330.1 205.05 C 332.32 206.73 335.98 207.57 339.28 207.57 C 342.52 207.57 346.42 206.67 349.06 204.15 C 351.46 201.87 353.02 198.21 353.02 190.83 L 353.02 173.67 C 353.02 170.67 353.12 168.39 353.26 166.23 L 350.62 166.23 L 350.44 171.09 L 350.32 171.09 C 349.12 168.69 346.3 165.57 340.6 165.57 z M 370.24 165.57 C 364.66 165.57 361.36 169.23 361.36 173.37 C 361.36 176.85 363.94 179.43 368.68 181.23 C 372.82 182.91 374.74 184.59 374.74 187.77 C 374.74 190.77 372.58 193.23 368.02 193.23 C 365.44 193.23 363.1 192.21 361.54 191.25 L 360.52 193.65 C 362.44 194.85 365.08 195.63 367.84 195.63 C 373.72 195.63 377.56 192.33 377.56 187.41 C 377.56 183.03 374.8 180.69 370.12 178.89 C 366.22 177.27 364.18 175.95 364.18 172.95 C 364.18 170.31 366.1 167.97 369.76 167.97 C 372.64 167.97 374.5 168.99 375.52 169.71 L 376.6 167.37 C 375.16 166.35 372.88 165.57 370.24 165.57 z M 285.39 166.23 L 285.39 195.03 L 288.27 195.03 L 288.27 166.23 L 285.39 166.23 z M 340.84 167.97 C 345.58 167.97 348.58 171.03 349.78 174.51 C 350.08 175.35 350.14 176.25 350.14 177.33 L 350.14 183.09 C 350.14 184.11 349.96 185.19 349.66 186.15 C 348.16 190.29 344.62 192.63 340.72 192.63 C 333.94 192.63 330.52 187.05 330.52 180.57 C 330.52 172.95 334.72 167.97 340.84 167.97 z"
    style="fill:#097ecc"/>
  <path
    d="M 520.94 152.43 L 520.94 195.03 L 523.82 195.03 L 523.82 152.43 L 520.94 152.43 z M 408.75 153.93 C 401.85 153.93 396.99 158.25 396.99 164.19 C 396.99 169.71 400.89 173.07 407.37 175.35 C 413.25 177.63 415.59 180.27 415.59 184.83 C 415.59 189.81 411.87 193.23 405.81 193.23 C 402.45 193.23 399.27 192.15 396.99 190.59 L 395.91 192.93 C 398.01 194.55 402.09 195.69 405.57 195.69 C 414.21 195.69 418.41 190.41 418.41 184.53 C 418.41 178.47 414.87 175.47 408.21 172.77 C 402.39 170.49 399.81 168.21 399.81 163.71 C 399.81 160.53 402.03 156.33 408.57 156.33 C 412.05 156.33 414.63 157.47 415.71 158.25 L 416.79 155.85 C 415.41 154.89 412.53 153.93 408.75 153.93 z M 427.58 155.49 C 426.26 155.49 425.24 156.69 425.24 158.01 C 425.24 159.33 426.14 160.47 427.46 160.47 C 428.96 160.47 429.86 159.33 429.86 158.01 C 429.86 156.63 428.9 155.49 427.58 155.49 z M 450.8 165.57 C 446.06 165.57 443.3 168.03 441.44 171.33 L 441.32 171.33 L 441.14 166.23 L 438.44 166.23 C 438.62 168.51 438.68 170.49 438.68 173.13 L 438.68 195.03 L 441.56 195.03 L 441.56 177.27 C 441.56 176.31 441.74 175.29 441.98 174.51 C 443.06 171.15 446.12 168.03 449.96 168.03 C 454.64 168.03 457.1 171.81 457.1 177.03 L 457.1 195.03 L 459.98 195.03 L 459.98 176.55 C 459.98 175.53 460.22 174.57 460.46 173.73 C 461.6 170.67 464.42 168.03 468.02 168.03 C 473 168.03 475.52 171.87 475.52 178.35 L 475.52 195.03 L 478.4 195.03 L 478.4 178.05 C 478.4 167.13 471.8 165.57 468.98 165.57 C 465.92 165.57 464 166.41 462.14 167.97 C 461.06 168.87 459.98 170.13 459.2 171.87 L 459.08 171.87 C 457.82 168.21 454.76 165.57 450.8 165.57 z M 501.16 165.57 C 496.18 165.57 492.64 167.91 490.54 171.69 L 490.42 171.69 L 490.24 166.23 L 487.48 166.23 C 487.66 168.99 487.72 171.81 487.72 175.41 L 487.72 206.91 L 490.6 206.91 L 490.6 190.35 L 490.72 190.35 C 492.7 193.83 496.36 195.69 500.5 195.69 C 507.46 195.69 513.58 190.41 513.58 180.15 C 513.58 171.69 508.6 165.57 501.16 165.57 z M 544.27 165.57 C 536.84 165.57 531.32 171.57 531.32 181.17 C 531.32 189.63 536.48 195.63 544.75 195.63 C 549.8 195.63 552.73 194.37 553.82 193.77 L 553.1 191.55 C 551.48 192.33 549.32 193.17 545.11 193.17 C 539.11 193.17 534.13 189.51 534.13 180.33 L 555.37 180.33 C 555.49 179.79 555.49 179.37 555.49 178.59 C 555.49 174.45 553.7 165.57 544.27 165.57 z M 426.14 166.23 L 426.14 195.03 L 429.02 195.03 L 429.02 166.23 L 426.14 166.23 z M 500.56 167.97 C 507.1 167.97 510.7 173.79 510.7 180.27 C 510.7 187.95 506.92 193.29 500.32 193.29 C 495.88 193.29 492.04 190.41 490.84 185.97 C 490.66 185.25 490.6 184.47 490.6 183.69 L 490.6 178.05 C 490.6 177.27 490.84 176.37 491.02 175.59 C 492.28 170.85 496.36 167.97 500.56 167.97 z M 543.91 167.97 C 550.87 167.97 552.56 174.03 552.49 178.05 L 534.25 178.05 C 534.8 173.61 537.56 167.97 543.91 167.97 z"
    style="fill:#065a90"/>
</svg>
